icons/rexicon-32-my-page-f.svg

<svg xmlns="http://www.w3.org/2000/svg" viewBox="0 0 32 32">
  <title>rexicon-32-my-page-f</title>
  <g>
    <g>
      <path d="M29.615,28.3254A18.5594,18.5594,0,0,0,29.2,26.0581a1.8749,1.8749,0,0,0-.59-.9748,14.82,14.82,0,0,0-3.9055-2.2757,1.5854,1.5854,0,0,1-.9563-1.115,1.5594,1.5594,0,0,1,.3918-1.4138c1.06-1.1255,1.3266-1.7759,1.3266-4.5288,0-3.0188-1.5819-4.75-4.3408-4.75s-4.3407,1.7312-4.3407,4.75c0,2.7529.2669,3.4033,1.3265,4.5288a1.5594,1.5594,0,0,1,.3917,1.4138,1.5852,1.5852,0,0,1-.9563,1.115,14.82,14.82,0,0,0-3.9054,2.2757,1.8736,1.8736,0,0,0-.59.9748,18.5594,18.5594,0,0,0-.4154,2.2673A1.51,1.51,0,0,0,14.1508,30h13.95A1.51,1.51,0,0,0,29.615,28.3254Z" style="fill: #333"/>
      <path d="M14.7852,15.75c0-4.1006,2.4888-6.75,6.3407-6.75A7.8007,7.8007,0,0,1,22,9.0535V4a2,2,0,0,0-2-2H4A2,2,0,0,0,2,4V22a2,2,0,0,0,2,2h7.9109a3.7438,3.7438,0,0,1,.4321-.4377,16.3413,16.3413,0,0,1,3.9015-2.375C15.0078,19.7019,14.7852,18.4141,14.7852,15.75ZM6,7H16V9H6Zm4,10H6V15h4Zm3-4H6V11h7Z" style="fill: #333"/>
    </g>
    <rect width="32" height="32" style="fill: none"/>
  </g>
</svg>

<svg xmlns="http://www.w3.org/2000/svg" viewBox="0 0 32 32"><title>rexicon-32-my-page-f</title><g fill="#333"><path d="M29.615 28.325a18.56 18.56 0 0 0-.415-2.267 1.875 1.875 0 0 0-.59-.975 14.82 14.82 0 0 0-3.905-2.275 1.585 1.585 0 0 1-.957-1.115 1.56 1.56 0 0 1 .392-1.414c1.06-1.126 1.327-1.776 1.327-4.529 0-3.019-1.582-4.75-4.341-4.75s-4.34 1.731-4.34 4.75c0 2.753.266 3.403 1.326 4.529a1.56 1.56 0 0 1 .391 1.414 1.585 1.585 0 0 1-.956 1.115 14.82 14.82 0 0 0-3.905 2.275 1.874 1.874 0 0 0-.59.975 18.56 18.56 0 0 0-.416 2.267A1.51 1.51 0 0 0 14.151 30H28.1a1.51 1.51 0 0 0 1.514-1.675z"/><path d="M14.785 15.75c0-4.1 2.489-6.75 6.34-6.75a7.8 7.8 0 0 1 .875.053V4a2 2 0 0 0-2-2H4a2 2 0 0 0-2 2v18a2 2 0 0 0 2 2h7.91a3.744 3.744 0 0 1 .433-.438 16.341 16.341 0 0 1 3.901-2.375c-1.236-1.485-1.459-2.773-1.459-5.437zM6 7h10v2H6zm4 10H6v-2h4zm3-4H6v-2h7z"/></g><path fill="none" d="M0 0h32v32H0z"/></svg>
